X: 3
T: Drummer's Call v.3
P: piffero primo a0861
O: Camp Dupont
%R: march, reel
F: http://ancients.sudburymuster.org/mus/sng/pdf/drummersC0.pdf
Z: 2020 John Chambers <jc:trillian.mit.edu>
M: 2/4
L: 1/16
K: G
z2 |\
z2D2 G2G2 | G2C2 D2C2 | B,2D2 G2D2 | G2A2 D2z2 |\
z2D2 G2G2 | G2C2 D2C2 | B,2D2 G2G2 | C2D2 G2 :|

% %sep 1 1 200
% %center - - - - - - - - - -
% Whatever we want at the bottom of each set belongs here.
